svgs/light/expand.svg

<svg xmlns="http://www.w3.org/2000/svg" viewBox="0 0 448 512"><!-- Font Awesome Pro 6.0.0-alpha2 by @fontawesome - https://fontawesome.com License - https://fontawesome.com/license (Commercial License) --><path d="M144 32H16C7.156 32 0 39.156 0 48V176C0 184.844 7.156 192 16 192S32 184.844 32 176V64H144C152.844 64 160 56.844 160 48S152.844 32 144 32ZM144 448H32V336C32 327.156 24.844 320 16 320S0 327.156 0 336V464C0 472.844 7.156 480 16 480H144C152.844 480 160 472.844 160 464S152.844 448 144 448ZM432 320C423.156 320 416 327.156 416 336V448H304C295.156 448 288 455.156 288 464S295.156 480 304 480H432C440.844 480 448 472.844 448 464V336C448 327.156 440.844 320 432 320ZM432 32H304C295.156 32 288 39.156 288 48S295.156 64 304 64H416V176C416 184.844 423.156 192 432 192S448 184.844 448 176V48C448 39.156 440.844 32 432 32Z"/></svg>

<svg xmlns="http://www.w3.org/2000/svg" viewBox="0 0 448 512"><!--! Font Awesome Pro 6.3.0 by @fontawesome - https://fontawesome.com License - https://fontawesome.com/license (Commercial License) Copyright 2023 Fonticons, Inc. --><path d="M144 32h-128C7.156 32 0 39.16 0 48v128C0 184.8 7.156 192 16 192S32 184.8 32 176V64h112C152.8 64 160 56.84 160 48S152.8 32 144 32zM144 448H32v-112C32 327.2 24.84 320 16 320S0 327.2 0 336v128C0 472.8 7.156 480 16 480h128C152.8 480 160 472.8 160 464S152.8 448 144 448zM432 320c-8.844 0-16 7.156-16 16V448h-112c-8.844 0-16 7.156-16 16s7.156 16 16 16h128c8.844 0 16-7.156 16-16v-128C448 327.2 440.8 320 432 320zM432 32h-128C295.2 32 288 39.16 288 48S295.2 64 304 64H416v112C416 184.8 423.2 192 432 192S448 184.8 448 176v-128C448 39.16 440.8 32 432 32z"/></svg>
